rospo-newyear-dark/symbolic/categories/applications-science-symbolic.svg

<svg height="16" width="16" xmlns="http://www.w3.org/2000/svg"><g fill="#d3dae3"><path d="m6.22 9-2.22 4h8l-2.22-4z" opacity=".3"/><path d="m5.9844.98633a1.0001 1.0001 0 0 0 -.9844 1.01367v2.7402c-.1179.2069-.9395 1.6454-1.8828 3.4141-.5044.9456-1.0086 1.9237-1.3965 2.7477-.1939.412-.358.785-.4824 1.112-.1244.326-.2383.528-.2383.986 0 0-.01379.709.3555 1.447.3692.739 1.3112 1.553 2.6445 1.553h8c1.333 0 2.275-.814 2.645-1.553.369-.738.355-1.447.355-1.447 0-.458-.114-.66-.238-.986-.125-.327-.289-.7-.483-1.112-.388-.824-.892-1.8021-1.396-2.7477-.944-1.7687-1.765-3.2072-1.883-3.4141v-2.7402a1.0001 1.0001 0 1 0 -2 0v3a1.0001 1.0001 0 0 0  .1309.4961s.9951 1.7409 1.9861 3.5996c.496.9293.992 1.8883 1.354 2.6583.181.385.329.723.424.971.094.247.105.483.105.275 0 0-.014.291-.145.553-.13.261-.188.447-.855.447h-8c-.6667 0-.7247-.186-.8555-.447-.1307-.262-.1445-.553-.1445-.553 0 .208.0111-.028.1055-.275.0943-.248.2427-.586.4238-.971.3621-.77.8579-1.729 1.3535-2.6583.9913-1.8587 1.9863-3.5996 1.9863-3.5996a1.0001 1.0001 0 0 0  .1309-.4961v-3a1.0001 1.0001 0 0 0 -1.0156-1.01367z"/><path d="m5 0h6c .554 0 1 .446 1 1s-.446 1-1 1h-6c-.554 0-1-.446-1-1s .446-1 1-1z"/></g></svg>

<svg xmlns="http://www.w3.org/2000/svg" width="16" height="16" version="1.1">
 <path style="opacity:0.3;fill:#d3dae3" d="M 6.22,9 4,13 H 12 L 9.78,9 Z"/>
 <path style="fill:#d3dae3" d="M 5.9844,0.98633 A 1.0001,1.0001 0 0 0 5,2 V 4.7402 C 4.8821,4.9471 4.0605,6.3856 3.1172,8.1543 2.6128,9.0999 2.1086,10.078 1.7207,10.902 1.5268,11.314 1.3627,11.687 1.2383,12.014 1.1139,12.34 1,12.542 1,13 1,13 0.98621,13.709 1.3555,14.447 1.7247,15.186 2.6667,16 4,16 H 12 C 13.333,16 14.275,15.186 14.645,14.447 15.014,13.709 15,13 15,13 15,12.542 14.886,12.34 14.762,12.014 14.637,11.687 14.473,11.314 14.279,10.902 13.891,10.078 13.387,9.0999 12.883,8.1543 11.939,6.3856 11.118,4.9471 11,4.7402 V 2 A 1.0001,1.0001 0 1 0 9,2 V 5 A 1.0001,1.0001 0 0 0 9.1309,5.4961 C 9.1309,5.4961 10.126,7.237 11.117,9.0957 11.613,10.025 12.109,10.984 12.471,11.754 12.652,12.139 12.8,12.477 12.895,12.725 12.989,12.972 13,13.208 13,13 13,13 12.986,13.291 12.855,13.553 12.725,13.814 12.667,14 12,14 H 4 C 3.3333,14 3.2753,13.814 3.1445,13.553 3.0138,13.291 3,13 3,13 3,13.208 3.0111,12.972 3.1055,12.725 3.1998,12.477 3.3482,12.139 3.5293,11.754 3.8914,10.984 4.3872,10.025 4.8828,9.0957 5.8741,7.237 6.8691,5.4961 6.8691,5.4961 A 1.0001,1.0001 0 0 0 7,5 V 2 A 1.0001,1.0001 0 0 0 5.9844,0.98633 Z"/>
 <path style="fill:#d3dae3;paint-order:stroke fill markers" d="M 5,0 H 11 C 11.554,0 12,0.446 12,1 12,1.554 11.554,2 11,2 H 5 C 4.446,2 4,1.554 4,1 4,0.446 4.446,0 5,0 Z"/>
</svg>
